!!!SOCIAL_FUNCTION:	songs of the drum religion
!!!PDT:	1932
!!!OTL: No_103_Song_During_Which_Fourth_Warrior_Dances.krn
!!!REG: Wisconsin
!!!LANG: Non-Tone
!!!LING_GROUP: Algonquin
**kern
*staff1
=1-
*clefF4
*k[f#c#g#]
*M2/4
4r
8r
8B\
=2
8B\L
8B\J
16c#\LL
16c#\J
8B\J
=3||
*M3/4
8A\L
8A\J
4A\
16E\
16r
8B\
=4||
*M2/4
8B\L
8B\J
8B\L
8B\J
=5!|:
8A\L
8A\J
8A\L
8A\J
=6||
*M5/8
8A\L
8A\
8A\
8A\
8F#\J
=7||
*M2/4
8E\L
8E\J
8E/L
8C#/J
=8||
*M3/4
8AA/L
8AA/J
4AA/
8r
8E\
=9||
*M2/4
8E\L
8D\J
8BB/L
8BB/J
=10
8AA/L
8AA/J
8AA/L
8GG#/J
=11
2AA/
=12
=
8AA/
8r
8r
8B\
=13:|!
4AA/
4r
==
*-
